X:1
T:Title
%%score { ( 1 4 ) | ( 2 3 ) }
L:1/8
M:4/4
K:Ab
V:1 treble nm="Grand Piano"
V:4 treble 
V:2 bass 
V:3 bass 
V:1
 z4[Q:1/4=110] [CE]4 | [EA]2 B2 c2 B2 | [EA]4 [DF]4 | [CE]4 [CE]4 | [CE]2 [CEA]2 [B,EB]2 .[CFB]2 | %5
 [B,EG]4 [A,=DF]4 |[M:2/4] E4 | c4 |[M:4/4] e2 d2 c2 B2 | A4 [FB]4 | [=Ec]4 B4 | %11
 [A,CA]2 [A,EG]2 [A,DF]2 [DFB]2 | [CEA]4 [B,EG]4 |[M:2/4] [CEA]4 |] %14
V:2
 z4 [A,,A,]4 | [C,A,]2 [E,G,E]2 [A,E]2 [E,G,E]2 | [C,A,]4 [D,A,]4 | [A,,A,]4 [A,,A,]4 | %4
 [A,,A,]2 A,,2 G,,2 z A | B,,4 B,,4 |[M:2/4] [E,G,]4 | [A,E]4 | %8
[M:4/4] [A,CE]2 [G,B,E]2 [A,E]2 [E,G,E]2 | [F,A,C]4 [D,F,]4 | [C,G,]4 z2 D2 | F,2 C,2 D,2 B,,2 | %12
 E,4 E,4 |[M:2/4] A,,4 |] %14
V:3
 x8 | x8 | x8 | x8 | z4 z2 A,,2 | x8 |[M:2/4] x4 | x4 |[M:4/4] x8 | x8 | z4 [E,G,]4 | x8 | x8 | %13
[M:2/4] x4 |] %14
V:4
 x8 | x8 | x8 | x8 | x8 | x8 |[M:2/4] x4 | x4 |[M:4/4] x8 | x8 | z4 _E2 z2 | x8 | x8 |[M:2/4] x4 |] %14

